Sweet-Rainbow/icons/konversation.svg

<?xml version="1.0" encoding="UTF-8" standalone="no"?>
<!-- Generator: Gravit.io -->

<svg
   xmlns:dc="http://purl.org/dc/elements/1.1/"
   xmlns:cc="http://creativecommons.org/ns#"
   xmlns:rdf="http://www.w3.org/1999/02/22-rdf-syntax-ns#"
   xmlns:svg="http://www.w3.org/2000/svg"
   xmlns="http://www.w3.org/2000/svg"
   xmlns:sodipodi="http://sodipodi.sourceforge.net/DTD/sodipodi-0.dtd"
   xmlns:inkscape="http://www.inkscape.org/namespaces/inkscape"
   style="isolation:isolate"
   viewBox="0 0 36 36"
   width="48"
   height="48"
   version="1.1"
   id="svg14"
   sodipodi:docname="konversation.svg"
   inkscape:version="0.92.4 (5da689c313, 2019-01-14)">
  <metadata
     id="metadata20">
    <rdf:RDF>
      <cc:Work
         rdf:about="">
        <dc:format>image/svg+xml</dc:format>
        <dc:type
           rdf:resource="http://purl.org/dc/dcmitype/StillImage" />
        <dc:title></dc:title>
      </cc:Work>
    </rdf:RDF>
  </metadata>
  <defs
     id="defs18" />
  <sodipodi:namedview
     pagecolor="#ffffff"
     bordercolor="#666666"
     borderopacity="1"
     objecttolerance="10"
     gridtolerance="10"
     guidetolerance="10"
     inkscape:pageopacity="0"
     inkscape:pageshadow="2"
     inkscape:window-width="640"
     inkscape:window-height="480"
     id="namedview16"
     showgrid="false"
     inkscape:zoom="29.365243"
     inkscape:cx="25.325443"
     inkscape:cy="32"
     inkscape:current-layer="svg14"
     units="px" />
  <linearGradient
     id="_lgradient_15"
     x1="0"
     y1="0.5"
     x2="1"
     y2="0.5"
     gradientTransform="matrix(44.002,0,0,39.998,1.998,4)"
     gradientUnits="userSpaceOnUse">
    <stop
       offset="0%"
       stop-opacity="1"
       style="stop-color:rgb(0,255,255)"
       id="stop2" />
    <stop
       offset="98.26086956521739%"
       stop-opacity="1"
       style="stop-color:rgb(165,83,168)"
       id="stop4" />
  </linearGradient>
  <linearGradient
     id="_lgradient_16"
     x1="1.4314996"
     y1="25.142843"
     x2="44.383358"
     y2="25.142843"
     gradientTransform="scale(1.04769,0.95448081)"
     gradientUnits="userSpaceOnUse">
    <stop
       offset="0%"
       stop-opacity="1"
       style="stop-color:rgb(0,255,255)"
       id="stop7" />
    <stop
       offset="98.26086956521739%"
       stop-opacity="1"
       style="stop-color:rgb(165,83,168)"
       id="stop9" />
  </linearGradient>
  <g
     id="g828"
     transform="matrix(0.79999587,0,0,0.79999587,-1.199808,-1.1985906)">
    <path
       id="path12"
       stroke-miterlimit="3"
       d="m 19.222,24.493 11.643,2.91 c 0.565,0.142 1.024,-0.217 1.024,-0.799 V 22.381 H 34 v -4.222 h -2.111 v -4.222 c 0,-0.583 -0.459,-0.941 -1.024,-0.8 L 16.024,16.848 C 15.459,16.989 15,17.577 15,18.159 v 4.222 c 0,0.583 0.459,1.171 1.024,1.312 l 1.211,0.303 c -0.079,0.148 -0.124,0.317 -0.124,0.497 v 4.222 c 0,0.582 0.473,1.055 1.056,1.055 v 0 c 0.582,0 1.055,-0.473 1.055,-1.055 z M 6,30.5 v 0 c 0,1.104 -0.896,2 -2,2 v 0 c -1.104,0 -2,-0.896 -2,-2 v 0 V 11 C 2,7.137 5.137,4 9,4 h 30 c 3.863,0 7,3.137 7,7 v 21.6 c 0,3.863 -3.137,7 -7,7 H 13.09 l -8.36,4.26 v 0 C 3.698,44.263 2.535,43.754 2.135,42.725 v 0 C 1.735,41.696 2.243,40.537 3.27,40.14 v 0 l 8.176,-4.092 C 11.939,35.801 12.788,35.6 13.34,35.6 H 39 c 1.656,0 3,-1.344 3,-3 V 11 C 42,9.344 40.656,8 39,8 H 9 C 7.344,8 6,9.344 6,11 Z"
       style="vector-effect:non-scaling-stroke;fill:url(#_lgradient_15);fill-rule:evenodd;stroke:url(#_lgradient_16);stroke-width:1;stroke-linecap:square;stroke-linejoin:miter;stroke-miterlimit:3"
       inkscape:connector-curvature="0" />
  </g>
</svg>

<?xml version="1.0" encoding="UTF-8" standalone="no"?><!-- Generator: Gravit.io --><svg xmlns="http://www.w3.org/2000/svg" xmlns:xlink="http://www.w3.org/1999/xlink" style="isolation:isolate" viewBox="0 0 48 48" width="48pt" height="48pt"><linearGradient id="_lgradient_15" x1="0" y1="0.5" x2="1" y2="0.5" gradientTransform="matrix(44.002,0,0,39.998,1.998,4)" gradientUnits="userSpaceOnUse"><stop offset="0%" stop-opacity="1" style="stop-color:rgb(0,255,255)"/><stop offset="98.26086956521739%" stop-opacity="1" style="stop-color:rgb(165,83,168)"/></linearGradient><linearGradient id="_lgradient_16" x1="0" y1="0.5" x2="1" y2="0.5"><stop offset="0%" stop-opacity="1" style="stop-color:rgb(0,255,255)"/><stop offset="98.26086956521739%" stop-opacity="1" style="stop-color:rgb(165,83,168)"/></linearGradient><path d=" M 19.222 24.493 L 30.865 27.403 C 31.43 27.545 31.889 27.186 31.889 26.604 L 31.889 22.381 L 34 22.381 L 34 18.159 L 31.889 18.159 L 31.889 13.937 C 31.889 13.354 31.43 12.996 30.865 13.137 L 16.024 16.848 C 15.459 16.989 15 17.577 15 18.159 L 15 22.381 C 15 22.964 15.459 23.552 16.024 23.693 L 17.235 23.996 C 17.156 24.144 17.111 24.313 17.111 24.493 L 17.111 28.715 C 17.111 29.297 17.584 29.77 18.167 29.77 L 18.167 29.77 C 18.749 29.77 19.222 29.297 19.222 28.715 L 19.222 24.493 L 19.222 24.493 Z  M 6 30.5 L 6 30.5 C 6 31.604 5.104 32.5 4 32.5 L 4 32.5 C 2.896 32.5 2 31.604 2 30.5 L 2 30.5 L 2 11 C 2 7.137 5.137 4 9 4 L 39 4 C 42.863 4 46 7.137 46 11 L 46 32.6 C 46 36.463 42.863 39.6 39 39.6 L 13.09 39.6 L 4.73 43.86 L 4.73 43.86 C 3.698 44.263 2.535 43.754 2.135 42.725 L 2.135 42.725 C 1.735 41.696 2.243 40.537 3.27 40.14 L 3.27 40.14 L 11.446 36.048 C 11.939 35.801 12.788 35.6 13.34 35.6 L 39 35.6 C 40.656 35.6 42 34.256 42 32.6 L 42 11 C 42 9.344 40.656 8 39 8 L 9 8 C 7.344 8 6 9.344 6 11 L 6 30.5 Z " fill-rule="evenodd" fill="url(#_lgradient_15)" vector-effect="non-scaling-stroke" stroke-width="1" stroke="url(#_lgradient_16)" stroke-linejoin="miter" stroke-linecap="square" stroke-miterlimit="3"/></svg>
